X:826
T:Reel 826
M:4/4
K:Amaj
L:1/8
 (3EFG |A2EC A,CEG|AGBA GEEG|FEDC DB,BA||GEFG AcBG:||2GEFG A2|AB|c2cA B2BG|AcBA GEED|F2cA FBBA||cABG AcBA:||2ecBG A2|
